packages/core/src/svgs/tokens/mono/GGP.svg

<svg width="24" height="24" viewBox="0 0 24 24" fill="none" xmlns="http://www.w3.org/2000/svg">
<path d="M5.12497 16.375V7.62499H10.9625C11.1875 7.62499 11.3749 7.41874 11.3749 7.18749V4.9125C11.3749 4.68126 11.1875 4.5 10.9625 4.5H2.41249C2.1875 4.5 2 4.6875 2 4.9125V19.0874C2 19.3187 2.1875 19.4999 2.41249 19.4999H10.9625C11.1875 19.4999 11.3749 19.3125 11.3749 19.0874V11.125C11.3749 10.8937 11.1875 10.7499 10.9625 10.7499H6.74997C6.51872 10.7499 6.37498 10.8937 6.37498 11.125V13.4C6.37498 13.6313 6.51872 13.8749 6.74997 13.8749H8.24996V16.375H5.12497Z" fill="white"/>
<path d="M12.625 4.9C12.625 4.68126 12.8187 4.5 13.0625 4.5H16.5625C16.8062 4.5 17 4.68126 17 4.9V5.1C17 5.325 16.8062 5.5 16.5625 5.5H14.2624V6.49999H16.5625C16.8062 6.49999 17 6.68749 17 6.9V7.09999C17 7.32499 16.8062 7.49999 16.5625 7.49999H14.2624V8.49998H16.5625C16.8062 8.49998 17 8.68124 17 8.89999V9.09995C17 9.3187 16.8062 9.49997 16.5625 9.49997H13.0625C12.8187 9.49997 12.625 9.3187 12.625 9.09995V4.9ZM17.625 4.9C17.625 4.68126 17.8187 4.5 18.0625 4.5H21.5625C21.8062 4.5 22 4.68126 22 4.9V5.1C22 5.325 21.8062 5.5 21.5625 5.5H19.2687V6.49999H21.5625C21.8062 6.49999 22 6.68749 22 6.9V7.09999C22 7.32499 21.8062 7.49999 21.5625 7.49999H19.2687V8.49998H21.5562C21.8062 8.49998 21.9937 8.68124 21.9937 8.89999V9.09995C21.9937 9.3187 21.8062 9.49997 21.5562 9.49997H18.0562C17.8187 9.49997 17.625 9.3187 17.625 9.09995V4.9Z" fill="white"/>
<path d="M14.1875 17.1751V17.7125C14.1875 17.85 14.2938 17.9626 14.4374 17.9626H15.4999C15.5663 17.9626 15.6299 17.9362 15.6767 17.8894C15.7237 17.8424 15.7499 17.7788 15.7499 17.7125V17.1751C15.7499 17.1087 15.7237 17.0452 15.6767 16.9982C15.6299 16.9514 15.5663 16.925 15.4999 16.925H14.4374C14.3712 16.925 14.3076 16.9514 14.2607 16.9982C14.2138 17.0452 14.1875 17.1087 14.1875 17.1751ZM14.1875 12.5437V13.0813C14.1875 13.2125 14.2938 13.3312 14.4374 13.3312H14.9749C15.0413 13.3312 15.1049 13.305 15.1517 13.258C15.1987 13.2112 15.2249 13.1476 15.2249 13.0813V12.5437C15.2249 12.4775 15.1987 12.4139 15.1517 12.367C15.1049 12.3202 15.0413 12.2938 14.9749 12.2938H14.4374C14.3712 12.2938 14.3076 12.3202 14.2607 12.367C14.2138 12.4139 14.1875 12.4775 14.1875 12.5437ZM12.625 11.1626C12.625 10.9313 12.8125 10.75 13.0437 10.75V10.7563H16.3749C16.6062 10.7563 16.7938 10.9438 16.7938 11.1688V12.3001H16.8312C16.925 12.3001 17.0186 12.2626 17.0937 12.2063C17.2278 12.0969 17.3956 12.0373 17.5687 12.0376C18.0875 12.0376 18.4875 12.5376 18.3125 13.0687C18.2782 13.1657 18.2251 13.2548 18.1561 13.3311C18.0872 13.4072 18.0036 13.4689 17.9106 13.5125C17.8175 13.5561 17.7167 13.5809 17.6141 13.5851C17.5114 13.5894 17.4089 13.5733 17.3125 13.5376C17.2313 13.5125 17.1624 13.475 17.0937 13.425C17.0204 13.3624 16.9276 13.3272 16.8312 13.3251H16.7938V14.4563C16.7938 14.6875 16.6062 14.8687 16.3749 14.8687H14.3937C14.339 14.8687 14.2866 14.8905 14.2478 14.9293C14.2092 14.9679 14.1875 15.0204 14.1875 15.0751V15.1813C14.1875 15.2939 14.2812 15.3875 14.3937 15.3875H16.8937C17.125 15.3875 17.3125 15.5687 17.3125 15.7938V16.5626C17.1438 16.5126 16.9562 16.5063 16.7624 16.575C16.4375 16.675 16.1937 16.9501 16.1375 17.2813C16.112 17.4358 16.1261 17.5944 16.1786 17.7419C16.2313 17.8897 16.3204 18.0215 16.4379 18.1252C16.5553 18.2289 16.6972 18.3011 16.8502 18.3349C17.0032 18.3687 17.1621 18.3632 17.3125 18.3187V19.0875C17.3125 19.3188 17.125 19.5 16.8937 19.5H13.0437C12.989 19.5008 12.9347 19.4908 12.884 19.4705C12.8331 19.4501 12.787 19.4199 12.7479 19.3814C12.709 19.343 12.6781 19.2972 12.6569 19.2468C12.6358 19.1963 12.625 19.1422 12.625 19.0875V15.5876C12.625 15.475 12.7188 15.3875 12.8312 15.3875H12.9375C13.0562 15.3875 13.1437 15.2939 13.1437 15.1813V15.0751C13.1437 15.0204 13.122 14.9679 13.0834 14.9293C13.0446 14.8905 12.9922 14.8687 12.9375 14.8687H12.8312C12.7765 14.8687 12.724 14.847 12.6854 14.8084C12.6467 14.7697 12.625 14.7172 12.625 14.6625V11.1626ZM18.8749 13.0813V12.5437C18.8749 12.4064 18.9874 12.2938 19.1249 12.2938H20.1874C20.3312 12.2938 20.4374 12.4001 20.4374 12.5437V13.0813C20.4374 13.1476 20.4111 13.2112 20.3642 13.258C20.3174 13.305 20.2538 13.3312 20.1874 13.3312H19.1249C19.0587 13.3312 18.9951 13.305 18.9482 13.258C18.9013 13.2112 18.8749 13.1476 18.8749 13.0813ZM17.7312 10.75C17.4999 10.75 17.3125 10.9375 17.3125 11.1626V11.9312C17.4369 11.8951 17.5676 11.8852 17.6962 11.9024C17.8247 11.9196 17.9482 11.9633 18.0589 12.031C18.1694 12.0987 18.2646 12.1886 18.3384 12.2952C18.4122 12.4018 18.463 12.5227 18.4875 12.6501C18.513 12.8046 18.4987 12.9632 18.4462 13.1107C18.3937 13.2583 18.3044 13.3902 18.1871 13.494C18.0695 13.5977 17.9278 13.6699 17.7748 13.7037C17.6218 13.7375 17.4627 13.732 17.3125 13.6875V14.4563C17.3125 14.6814 17.4999 14.8625 17.7312 14.8625H19.3999V14.9062C19.3999 15 19.3625 15.0938 19.2999 15.1687C19.2562 15.2313 19.2124 15.3 19.1875 15.3814C19.1249 15.5563 19.1125 15.75 19.2249 15.9688C19.3625 16.225 19.6312 16.4063 19.9249 16.4063C20.3562 16.4063 20.6999 16.0625 20.6999 15.6376C20.6999 15.5438 20.6812 15.4626 20.6499 15.3814C20.6233 15.3039 20.5831 15.232 20.5312 15.1687C20.4721 15.0939 20.4393 15.0017 20.4374 14.9062V14.8625H21.5812C21.8125 14.8625 21.9937 14.6814 21.9937 14.4563V11.1626C21.9937 10.9313 21.8062 10.75 21.5812 10.75H17.7312ZM19.3999 17.7125V17.1751C19.3999 17.0376 19.5124 16.925 19.6499 16.925H20.1937C20.3312 16.925 20.4437 17.0376 20.4437 17.1751V17.7125C20.4437 17.7788 20.4173 17.8424 20.3705 17.8894C20.3235 17.9362 20.2599 17.9626 20.1937 17.9626H19.6499C19.5837 17.9626 19.5201 17.9362 19.4732 17.8894C19.4263 17.8424 19.3999 17.7788 19.3999 17.7125ZM20.8125 15.3875C20.8374 15.4689 20.85 15.5501 20.85 15.6376C20.8514 15.7706 20.8243 15.9024 20.7702 16.0239C20.7161 16.1455 20.6365 16.2539 20.5367 16.3419C20.437 16.4299 20.3193 16.4954 20.192 16.5337C20.0645 16.5721 19.9303 16.5826 19.7987 16.5643C19.6668 16.5463 19.5405 16.4997 19.4282 16.4284C19.3161 16.357 19.2206 16.2622 19.1482 16.1505C19.076 16.0388 19.0288 15.9128 19.0096 15.7811C18.9904 15.6494 18.9999 15.5152 19.0374 15.3875H18.2499C18.0188 15.3875 17.8312 15.5687 17.8312 15.7938V16.925H17.7937C17.6981 16.9247 17.6055 16.8916 17.5312 16.8312C17.4687 16.7813 17.3937 16.7437 17.3125 16.7188C17.1375 16.6562 16.9374 16.6438 16.7187 16.75C16.4562 16.8875 16.2688 17.1563 16.2688 17.45C16.271 17.5738 16.3029 17.6951 16.3617 17.8039C16.4204 17.9129 16.5044 18.006 16.6067 18.0758C16.7087 18.1455 16.8261 18.1898 16.9489 18.2048C17.0717 18.22 17.1964 18.2054 17.3125 18.1625C17.3937 18.1376 17.4624 18.1 17.5312 18.0501C17.6062 17.9875 17.7 17.9563 17.7937 17.9563H17.8312V19.0813C17.8312 19.3126 18.0188 19.4938 18.2499 19.4938H21.5812C21.8125 19.4938 22 19.3063 22 19.0875V15.7938C22 15.5625 21.8125 15.3814 21.5812 15.3814H20.8125V15.3875Z" fill="white"/>
</svg>

<svg xmlns="http://www.w3.org/2000/svg" width="24" height="24" fill="none" viewBox="0 0 24 24">
    <path fill="#fff" d="M5.125 16.375v-8.75h5.838c.225 0 .412-.206.412-.438V4.912a.41.41 0 0 0-.412-.412h-8.55A.416.416 0 0 0 2 4.912v14.175c0 .232.188.413.412.413h8.55a.416.416 0 0 0 .413-.413v-7.962c0-.231-.187-.375-.412-.375H6.75c-.231 0-.375.144-.375.375V13.4c0 .231.144.475.375.475h1.5v2.5zm7.5-11.475c0-.219.194-.4.438-.4h3.5c.243 0 .437.181.437.4v.2c0 .225-.194.4-.437.4h-2.3v1h2.3c.243 0 .437.187.437.4v.2c0 .225-.194.4-.437.4h-2.3v1h2.3c.243 0 .437.181.437.4v.2c0 .219-.194.4-.437.4h-3.5c-.244 0-.438-.181-.438-.4zm5 0c0-.219.194-.4.438-.4h3.5c.243 0 .437.181.437.4v.2c0 .225-.194.4-.437.4h-2.294v1h2.294c.243 0 .437.187.437.4v.2c0 .225-.194.4-.437.4h-2.294v1h2.287c.25 0 .438.181.438.4v.2c0 .219-.188.4-.438.4h-3.5c-.237 0-.431-.181-.431-.4zm-3.437 12.275v.537c0 .138.106.25.25.25H15.5a.25.25 0 0 0 .25-.25v-.537a.25.25 0 0 0-.25-.25h-1.063a.25.25 0 0 0-.25.25m0-4.631v.537c0 .132.106.25.25.25h.537a.25.25 0 0 0 .25-.25v-.537a.25.25 0 0 0-.25-.25h-.538a.25.25 0 0 0-.25.25m-1.563-1.381c0-.232.188-.413.419-.413v.006h3.33c.232 0 .42.188.42.413V12.3h.037a.45.45 0 0 0 .263-.094.75.75 0 0 1 .475-.168c.518 0 .919.5.744 1.03a.777.777 0 0 1-1 .47.7.7 0 0 1-.22-.113.42.42 0 0 0-.262-.1h-.037v1.131a.414.414 0 0 1-.42.413h-1.98a.206.206 0 0 0-.207.206v.106c0 .113.094.207.207.207h2.5c.231 0 .419.18.419.406v.769a.88.88 0 0 0-.55.012.903.903 0 0 0-.325 1.55.92.92 0 0 0 .875.194v.768a.413.413 0 0 1-.42.413h-3.85a.413.413 0 0 1-.418-.413v-3.5c0-.112.094-.2.206-.2h.107a.204.204 0 0 0 .206-.206v-.106a.206.206 0 0 0-.207-.206h-.106a.206.206 0 0 1-.206-.207zm6.25 1.918v-.537a.25.25 0 0 1 .25-.25h1.062c.144 0 .25.106.25.25v.537a.25.25 0 0 1-.25.25h-1.062a.25.25 0 0 1-.25-.25M17.73 10.75a.417.417 0 0 0-.419.413v.768a.933.933 0 0 1 1.175.72.925.925 0 0 1-1.174 1.037v.768c0 .225.187.407.418.407h1.67v.043a.4.4 0 0 1-.1.263.8.8 0 0 0-.113.212.7.7 0 0 0 .038.588.81.81 0 0 0 .7.437.77.77 0 0 0 .775-.768.7.7 0 0 0-.05-.257.7.7 0 0 0-.119-.212.44.44 0 0 1-.094-.263v-.043h1.144a.407.407 0 0 0 .413-.407v-3.293a.41.41 0 0 0-.413-.413zm1.669 6.962v-.537a.25.25 0 0 1 .25-.25h.544a.25.25 0 0 1 .25.25v.537a.25.25 0 0 1-.25.25h-.544a.25.25 0 0 1-.25-.25m1.413-2.325a.926.926 0 1 1-1.775 0h-.788a.41.41 0 0 0-.419.407v1.131h-.037a.42.42 0 0 1-.263-.094.7.7 0 0 0-.218-.112.74.74 0 0 0-.594.031c-.263.137-.45.406-.45.7a.773.773 0 0 0 1.044.713.7.7 0 0 0 .218-.113.4.4 0 0 1 .263-.094h.037v1.125c0 .232.188.413.419.413h3.331a.416.416 0 0 0 .419-.407v-3.293a.413.413 0 0 0-.419-.413h-.768z"/>
</svg>
